X:196
T: I Had a Horse, I Had Nae Mair
N: O'Farrell's Pocket Companion v.3 (Sky ed. p.101)
N: "Scotch"
M: 3/4
R: waltz
L: 1/8
Q: 200
K: Em
DE|G<G g3e| d>B A3B |G<G G3A| BE2 z DE|
G>G G2 ge| d>B A2 BB|G<G G3A| B2 E2 :|
zG| cc c3c| BB B3G| A<A A3B| Be2 z2 g|
d>e g2 g/a/b|ag e3g|d/B/A/G/ G3A|BE2 z :|
